assets/favicon/favicon.svg

<svg xmlns="http://www.w3.org/2000/svg" version="1.1" xmlns:xlink="http://www.w3.org/1999/xlink" xmlns:svgjs="http://svgjs.dev/svgjs" width="1000" height="1000"><g clip-path="url(#SvgjsClipPath1078)"><rect width="1000" height="1000" fill="#b85f4a"></rect><g transform="matrix(26.666666666666668,0,0,26.666666666666668,113.33333333333331,100)"><svg xmlns="http://www.w3.org/2000/svg" version="1.1" xmlns:xlink="http://www.w3.org/1999/xlink" xmlns:svgjs="http://svgjs.dev/svgjs" width="29" height="30"><svg width="29" height="30" viewBox="0 0 29 30" fill="none" xmlns="http://www.w3.org/2000/svg">
<path d="M2.50485 7.8325C2.73861 7.525 3.04646 7.10875 3.29299 6.81125C4.03131 5.99125 4.12711 5.88375 4.799 5.2775C4.99827 5.1175 5.23459 4.925 5.46579 4.74375C3.7605 6.15625 3.54335 7.72 5.10813 8.68625C5.10557 8.68625 5.10557 8.68625 5.10557 8.68875C7.2937 9.97875 12.0889 9.7 15.8725 8.0475C19.5373 6.4475 20.89 4.15875 19.0812 2.79875C17.4935 2.5075 15.6004 2.47375 13.5975 2.73625L13.3893 2.4L13.5617 1.8425C14.7395 1.73875 15.8584 1.76375 16.8241 1.925C17.0579 1.96375 17.3657 2.03 17.5957 2.0775C18.0402 2.18375 18.2816 2.2475 18.5716 2.33875C18.8679 2.425 19.1208 2.51125 19.5615 2.67125C19.9933 2.8375 20.1798 2.9125 20.5259 3.08125C20.9136 3.25433 21.2903 3.4501 21.6539 3.6675C24.5356 5.44125 22.7435 8.6775 17.6583 10.895C12.5871 13.105 6.12491 13.4525 3.22912 11.7C3.22784 11.6975 3.22401 11.695 3.21635 11.6925H3.22145C1.64007 10.7125 1.47402 9.29 2.50485 7.8325ZM15.6988 20.2325L15.6579 18.24L14.2106 16.665C9.42946 17.725 4.73003 17.4975 2.11653 15.9913C2.10759 15.9812 2.08588 15.9713 2.07693 15.9613C0.597743 15.07 0.232416 13.92 0.343547 12.67C-0.00261987 14.4987 -0.030722 15.1587 0.0190954 16.7237C0.080409 17.7037 0.659056 18.6075 1.82274 19.32L1.83168 19.33C4.61762 21.025 10.422 21.3925 15.6988 20.2325ZM21.7343 22.5138C14.986 25.1625 6.54005 25.3188 2.87146 22.8675C3.26764 23.815 3.80672 24.6989 4.47072 25.49C7.83786 27.74 15.5902 27.5963 21.7816 25.165C25.4055 23.7437 27.692 21.8525 28.2923 20.08L28.461 19.5462C28.8608 18.1938 28.9361 17.0675 29 16.065C28.9272 18.2413 26.3073 20.7162 21.7343 22.5138ZM6.83768 27.615C7.04972 27.8125 7.71651 28.6138 11.0951 29.4988C12.0085 29.6963 14.3077 30.33 18.555 29.4088L18.5805 29.03L18.2446 28.515C14.3039 29.4275 9.92635 29.1225 6.83768 27.615ZM16.5891 11.8538L20.1772 14.515C20.1772 14.515 20.9449 15.0562 20.2207 15.4362C19.4989 15.8125 17.6455 16.7337 17.6455 16.7337L15.815 16.065L14.8966 16.465L16.5163 17.8412L16.5291 19.9825L17.4807 19.5688L18.1117 17.76C18.1117 17.76 20.0495 17.03 20.8185 16.755C21.5913 16.4862 21.4878 17.4062 21.4878 17.4062L21.1072 21.795L22.3717 21.245L24.4539 15.3237C24.4539 15.3237 25.5575 14.7987 26.3341 14.3375C27.1095 13.8763 27.3752 13.1112 27.3752 13.1112C27.3752 13.1112 26.619 12.7925 25.7478 13.0487C24.8767 13.3025 23.7411 13.755 23.7411 13.755L17.8499 11.3062L16.5891 11.8538ZM8.99771 3.43375L11.4336 5.3325L12.0992 5.235L10.7732 3.53125C10.7732 3.53125 10.4846 3.17875 10.8729 3.095C11.2638 3.01 12.2524 2.8125 12.2524 2.8125L12.9959 3.39375L13.4966 3.32125L12.9294 2.43875L13.2283 1.46L12.7442 1.52875L12.1707 2.27375C12.1707 2.27375 11.1641 2.36625 10.7681 2.39875C10.3696 2.42875 10.5408 2.01 10.5408 2.01L11.3046 0L10.6353 0.09625L8.87253 2.6075C8.87253 2.6075 8.28494 2.7125 7.85958 2.83125C7.43293 2.94875 7.20812 3.27125 7.20812 3.27125C7.20812 3.27125 7.52107 3.51875 7.96176 3.51C8.40629 3.50125 8.99771 3.43375 8.99771 3.43375ZM21.0369 27.8312L19.4606 27.025L19.0979 27.1488L20.0316 27.9662C20.0316 27.9662 20.2309 28.1325 20.0214 28.2212C19.8119 28.3088 19.278 28.5238 19.278 28.5238L18.8373 28.3313L18.5754 28.4237L18.942 28.8062L18.9062 29.365L19.1796 29.2725L19.384 28.8188C19.384 28.8188 19.9384 28.6575 20.1593 28.6C20.379 28.5412 20.3292 28.7938 20.3292 28.7938L20.121 30L20.4851 29.8762L21.1991 28.2812C21.1991 28.2812 21.5146 28.16 21.7407 28.0487C21.9668 27.9375 22.0562 27.7325 22.0562 27.7325C22.0562 27.7325 21.8557 27.625 21.6079 27.6787C21.3588 27.73 21.0369 27.8312 21.0369 27.8312Z" fill="white"></path>
</svg></svg></g></g><defs><clipPath id="SvgjsClipPath1078"><rect width="1000" height="1000" x="0" y="0" rx="500" ry="500"></rect></clipPath></defs></svg>

<svg xmlns="http://www.w3.org/2000/svg" width="1000" height="1000"><g clip-path="url(#a)"><path fill="#b85f4a" d="M0 0h1000v1000H0z"/><svg xmlns="http://www.w3.org/2000/svg" xmlns:svgjs="http://svgjs.dev/svgjs" xmlns:xlink="http://www.w3.org/1999/xlink" width="29" height="30" transform="matrix(26.66667 0 0 26.66667 113.333 100)"><svg xmlns="http://www.w3.org/2000/svg" width="29" height="30" fill="none" viewBox="0 0 29 30"><path fill="#fff" d="M2.505 7.833c.234-.308.541-.724.788-1.022.738-.82.834-.927 1.506-1.533.2-.16.436-.353.667-.534C3.76 6.156 3.543 7.72 5.108 8.686q-.002 0-.002.003c2.188 1.29 6.983 1.011 10.767-.642 3.664-1.6 5.017-3.888 3.208-5.248-1.587-.292-3.48-.325-5.483-.063l-.209-.336.173-.557c1.178-.104 2.296-.08 3.262.082.234.039.542.105.772.153.444.106.686.17.976.26.296.087.549.173.99.333.431.167.618.242.964.41q.582.26 1.128.587c2.882 1.773 1.09 5.01-3.996 7.227-5.07 2.21-11.533 2.558-14.429.805q-.001-.004-.013-.007h.005c-1.58-.98-1.747-2.403-.716-3.86m13.194 12.4-.041-1.993-1.447-1.575c-4.782 1.06-9.481.832-12.094-.674-.01-.01-.031-.02-.04-.03C.597 15.07.232 13.92.344 12.67c-.347 1.829-.375 2.489-.325 4.054.061.98.64 1.884 1.804 2.596l.009.01c2.786 1.695 8.59 2.063 13.867.903m6.035 2.28c-6.748 2.65-15.194 2.806-18.863.354a10.2 10.2 0 0 0 1.6 2.623c3.367 2.25 11.12 2.106 17.31-.325 3.625-1.421 5.911-3.312 6.511-5.085l.169-.534c.4-1.352.475-2.479.539-3.481-.073 2.176-2.693 4.651-7.266 6.449M6.838 27.616c.212.198.879.999 4.257 1.884.913.197 3.213.831 7.46-.09l.026-.379-.336-.515c-3.941.912-8.319.607-11.407-.9m9.751-15.761 3.588 2.661s.768.541.044.921c-.722.377-2.576 1.298-2.576 1.298l-1.83-.669-.918.4 1.62 1.376.012 2.142.952-.414.63-1.809s1.938-.73 2.707-1.005c.773-.269.67.651.67.651l-.38 4.389 1.264-.55 2.082-5.921s1.104-.525 1.88-.986c.776-.462 1.041-1.227 1.041-1.227s-.756-.319-1.627-.062c-.871.254-2.007.706-2.007.706l-5.891-2.449zm-7.591-8.42 2.436 1.898.665-.097-1.326-1.704s-.288-.352.1-.436c.39-.085 1.38-.283 1.38-.283l.743.582.5-.073-.567-.882.3-.979-.485.069-.573.745s-1.007.092-1.403.125c-.398.03-.227-.389-.227-.389L11.305 0l-.67.096-1.762 2.512s-.588.104-1.013.223c-.427.118-.652.44-.652.44s.313.248.754.239c.444-.009 1.036-.076 1.036-.076M21.037 27.83l-1.576-.806-.363.124.934.817s.199.166-.01.255l-.744.303-.44-.193-.263.093.367.382-.036.559.274-.092.204-.454s.554-.162.775-.219c.22-.059.17.194.17.194L20.121 30l.364-.124.714-1.595s.316-.121.542-.232a.7.7 0 0 0 .315-.316s-.2-.108-.448-.054c-.25.051-.571.152-.571.152"/></svg></svg></g><defs><clipPath id="a"><rect width="1000" height="1000" rx="500" ry="500"/></clipPath></defs></svg>
